X:1
T:Missionary (Commuck), 669.669
T:Missionary (Commuck), 669.669
T:Thomas Commuck, 1845
T:Public Domain Courtesy of the Cyber Hymnal™
C:Thomas Commuck, 1845
Z:Public Domain
Z:Courtesy of the Cyber Hymnal™
%%score ( 1 2 ) ( 3 4 )
L:1/8
Q:1/4=115
M:4/4
K:D
V:1 treble 
V:2 treble 
V:3 bass 
V:4 bass 
V:1
 (D2 [DF]2) | [FA]4 [GB][FA] [DF]2 | [FA]4 [GB]2 [Gc]2 | [Fd]4 [FA]2 [DF]2 | %4
 (E2 !fermata!D2) [Ad]2 [Ae]2 | [Af]4 [Ae]2 [^Gd]2 | [Ae]4 [Bd]2 [^GB]2 | %7
 !fermata!A4 ([Ae]2 [Ag]2) | [Af]2 [Fd]2 [Ge]2 [Fd]2 | [FA]4 [DF]2 [FA]2 | [Fd]4 [FA]2 [DF]2 | %11
 (E2 !fermata!D2) D2 [DF]2 | [FA]4 ([GB][FA]) [DF]2 | [FA]4 [Ad]2 [Ac]2 | !fermata![Fd]4 |] %15
V:2
 D2 x2 | x8 | x8 | x8 | C4 x4 | x8 | x8 | A4 x4 | x8 | x8 | x8 | C4 D2 x2 | x8 | x8 | x4 |] %15
V:3
 ([D,F,]2 [D,A,]2) | [D,D]4 [D,D]2 [D,D]2 | [D,D]4 [D,D]2 [D,A,]2 | [D,A,]4 [D,A,]2 [D,A,]2 | %4
 (G,2 !fermata!F,2) [F,D]2 [A,C]2 | D4 [CE]2 [B,E]2 | [A,C]4 [D,F]2 (ED) | %7
 !fermata![A,C]4 ([A,,C]2 [A,,E]2) | (D2 A,2) [D,A,]2 [D,A,]2 | [D,D]4 [D,A,]2 [D,A,]2 | %10
 [D,A,]4 [D,A,]2 [D,A,]2 | (!fermata!G,2 F,2) [D,F,]2 [D,A,]2 | [D,D]4 [D,D]2 [D,D]2 | %13
 [D,D]4 [A,,F]2 [A,,E]2 | !fermata![D,D]4 |] %15
V:4
 x4 | x8 | x8 | x8 | D,4 x4 | D4 x4 | x6 D,2 | x8 | D,4 x4 | x8 | x8 | D,4 x4 | x8 | x8 | x4 |] %15

